resource/visual/card/vector/character/the-priest-of-punishment.svg

<?xml version="1.0" encoding="UTF-8" standalone="no"?><!-- Created with Inkscape (http://www.inkscape.org/) --><svg xmlns="http://www.w3.org/2000/svg" xmlns:cc="http://creativecommons.org/ns#" xmlns:dc="http://purl.org/dc/elements/1.1/" xmlns:inkscape="http://www.inkscape.org/namespaces/inkscape" xmlns:osb="http://www.openswatchbook.org/uri/2009/osb" xmlns:rdf="http://www.w3.org/1999/02/22-rdf-syntax-ns#" xmlns:sodipodi="http://sodipodi.sourceforge.net/DTD/sodipodi-0.dtd" xmlns:svg="http://www.w3.org/2000/svg" xmlns:xlink="http://www.w3.org/1999/xlink" height="3.5000002in" id="svg8" inkscape:export-filename="D:\Projects\Charters Board Game\resource\visual\charters-hex-new.png" inkscape:export-xdpi="200" inkscape:export-ydpi="200" inkscape:version="0.92.3 (2405546, 2018-03-11)" sodipodi:docname="character-template.svg" version="1.1" viewBox="0 0 76.989898 88.9" width="3.0310984in">
  <title id="title8454">Charters Hex</title>
  <defs id="defs2">
    <linearGradient id="linearGradient874" inkscape:collect="always">
      <stop id="stop870" offset="0" style="stop-color:#2d2d2d;stop-opacity:1"/>
      <stop id="stop872" offset="1" style="stop-color:#d5d5d5;stop-opacity:1"/>
    </linearGradient>
    <linearGradient id="linearGradient4684" osb:paint="solid">
      <stop id="stop4682" offset="0" style="stop-color:#fe0000;stop-opacity:1;"/>
    </linearGradient>
    <linearGradient id="linearGradient4678" osb:paint="solid">
      <stop id="stop4676" offset="0" style="stop-color:#fe0000;stop-opacity:1;"/>
    </linearGradient>
    <linearGradient id="linearGradient4672" osb:paint="solid">
      <stop id="stop4670" offset="0" style="stop-color:#fe0000;stop-opacity:1;"/>
    </linearGradient>
    <linearGradient id="card-color" osb:paint="solid">
      <stop id="stop4664" offset="0" style="stop-color:#0014fe;stop-opacity:1;"/>
    </linearGradient>
    <clipPath clipPathUnits="userSpaceOnUse" id="clipPath828">
      <path d="M 38.494806,86.360001 2.1996804,65.405002 l -1.1e-6,-41.91 L 38.494803,2.5400009 74.789928,23.495 l 10e-7,41.91 z" id="path830" inkscape:flatsided="true" inkscape:randomized="0" inkscape:rounded="0" sodipodi:arg1="1.5707963" sodipodi:arg2="2.0943951" sodipodi:cx="38.494804" sodipodi:cy="44.450001" sodipodi:r1="41.91" sodipodi:r2="36.295128" sodipodi:sides="6" sodipodi:type="star" style="fill:#ffffff;fill-opacity:1;stroke:none;stroke-width:9.19934845;stroke-miterlimit:4;stroke-dasharray:none;stroke-opacity:1"/>
    </clipPath>
    <clipPath clipPathUnits="userSpaceOnUse" id="clipPath914">
      <path d="M 38.494806,86.360001 2.1996804,65.405002 l -1.1e-6,-41.91 L 38.494803,2.5400009 74.789928,23.495 l 10e-7,41.91 z" id="path916" inkscape:flatsided="true" inkscape:randomized="0" inkscape:rounded="0" sodipodi:arg1="1.5707963" sodipodi:arg2="2.0943951" sodipodi:cx="38.494804" sodipodi:cy="44.450001" sodipodi:r1="41.91" sodipodi:r2="36.295128" sodipodi:sides="6" sodipodi:type="star" style="fill:#ffffff;fill-opacity:1;stroke:none;stroke-width:9.19934845;stroke-miterlimit:4;stroke-dasharray:none;stroke-opacity:1"/>
    </clipPath>
    <clipPath clipPathUnits="userSpaceOnUse" id="clipPath948">
      <path d="M 38.494806,86.360001 2.1996804,65.405002 l -1.1e-6,-41.91 L 38.494803,2.5400009 74.789928,23.495 l 10e-7,41.91 z" id="path950" inkscape:flatsided="true" inkscape:randomized="0" inkscape:rounded="0" sodipodi:arg1="1.5707963" sodipodi:arg2="2.0943951" sodipodi:cx="38.494804" sodipodi:cy="44.450001" sodipodi:r1="41.91" sodipodi:r2="36.295128" sodipodi:sides="6" sodipodi:type="star" style="fill:#ffffff;fill-opacity:1;stroke:none;stroke-width:9.19934845;stroke-miterlimit:4;stroke-dasharray:none;stroke-opacity:1"/>
    </clipPath>
    <linearGradient gradientUnits="userSpaceOnUse" id="linearGradient4668" inkscape:collect="always" x1="2.1996793" x2="74.789384" xlink:href="#card-color" y1="73.025001" y2="73.025001"/>
    <linearGradient gradientUnits="userSpaceOnUse" id="linearGradient4674" inkscape:collect="always" x1="2.1996803" x2="74.789391" xlink:href="#card-color" y1="60.960003" y2="60.960003"/>
    <linearGradient gradientUnits="userSpaceOnUse" id="linearGradient4680" inkscape:collect="always" x1="2.1996803" x2="74.789391" xlink:href="#card-color" y1="67.945" y2="67.945"/>
    <linearGradient gradientUnits="userSpaceOnUse" id="linearGradient4686" inkscape:collect="always" x1="17.666658" x2="58.115398" xlink:href="#card-color" y1="80.962502" y2="80.962502"/>
    <clipPath clipPathUnits="userSpaceOnUse" id="clipPath6226">
      <g id="g6236">
        <rect clip-path="url(#clipPath914)" height="5.0799999" id="rect6228" style="opacity:0.75;fill:url(#linearGradient6238);fill-opacity:1;stroke:none;stroke-width:4.44327974;stroke-miterlimit:4;stroke-dasharray:none;stroke-opacity:1" width="72.593193" x="2.1961906" y="70.485001"/>
        <rect height="8.8899994" id="rect6230" style="opacity:0.75;fill:url(#linearGradient6240);fill-opacity:1;stroke:none;stroke-width:5.87776518;stroke-miterlimit:4;stroke-dasharray:none;stroke-opacity:1" width="72.589706" x="2.1996803" y="56.515003"/>
        <rect clip-path="url(#clipPath828)" height="5.0799999" id="rect6232" style="opacity:0.5;fill:url(#linearGradient6242);fill-opacity:1;stroke:none;stroke-width:4.44317293;stroke-miterlimit:4;stroke-dasharray:none;stroke-opacity:1" width="72.589706" x="2.1996803" y="65.404999"/>
        <rect clip-path="url(#clipPath948)" height="16.844042" id="rect6234" style="opacity:0.5;fill:url(#linearGradient6244);fill-opacity:1;stroke:none;stroke-width:6.03947926;stroke-miterlimit:4;stroke-dasharray:none;stroke-opacity:1" width="40.448742" x="17.666658" y="75.565002"/>
      </g>
    </clipPath>
    <linearGradient gradientUnits="userSpaceOnUse" id="linearGradient6238" inkscape:collect="always" x1="2.1996793" x2="74.789384" xlink:href="#card-color" y1="73.025001" y2="73.025001"/>
    <linearGradient gradientUnits="userSpaceOnUse" id="linearGradient6240" inkscape:collect="always" x1="2.1996803" x2="74.789391" xlink:href="#card-color" y1="60.960003" y2="60.960003"/>
    <linearGradient gradientUnits="userSpaceOnUse" id="linearGradient6242" inkscape:collect="always" x1="2.1996803" x2="74.789391" xlink:href="#card-color" y1="67.945" y2="67.945"/>
    <linearGradient gradientUnits="userSpaceOnUse" id="linearGradient6244" inkscape:collect="always" x1="17.666658" x2="58.115398" xlink:href="#card-color" y1="80.962502" y2="80.962502"/>
    <clipPath clipPathUnits="userSpaceOnUse" id="clipPath939">
      <path d="M 38.494807,2.5398965 2.1998656,23.495205 V 56.514894 H 74.789746 V 23.495205 Z" id="path941" inkscape:connector-curvature="0" style="fill:#ffffff;fill-opacity:1;stroke:none;stroke-width:9.19934845;stroke-miterlimit:4;stroke-dasharray:none;stroke-opacity:1"/>
    </clipPath>
    <linearGradient gradientUnits="userSpaceOnUse" id="linearGradient876" inkscape:collect="always" x1="13.599306" x2="55.565914" xlink:href="#linearGradient874" y1="237.07806" y2="261.08932"/>
  </defs>
  <sodipodi:namedview bordercolor="#666666" borderlayer="false" borderopacity="1.0" id="base" inkscape:bbox-nodes="false" inkscape:bbox-paths="true" inkscape:current-layer="layer1" inkscape:cx="143.24343" inkscape:cy="161.47022" inkscape:document-units="in" inkscape:measure-end="290.984,252" inkscape:measure-start="0,252" inkscape:object-paths="true" inkscape:pagecheckerboard="true" inkscape:pageopacity="0.0" inkscape:pageshadow="2" inkscape:snap-bbox="true" inkscape:window-height="1017" inkscape:window-maximized="1" inkscape:window-width="1920" inkscape:window-x="-8" inkscape:window-y="-8" inkscape:zoom="2.4903231" pagecolor="#ffffff" showborder="true" showgrid="true" showguides="true" units="in"/>
  <metadata id="metadata5">
    <rdf:RDF>
      <cc:Work rdf:about="">
        <dc:format>image/svg+xml</dc:format>
        <dc:type rdf:resource="http://purl.org/dc/dcmitype/StillImage"/>
        <dc:title>Charters Hex</dc:title>
        <dc:creator>
          <cc:Agent>
            <dc:title>B. Ranson</dc:title>
          </cc:Agent>
        </dc:creator>
      </cc:Work>
    </rdf:RDF>
  </metadata>
  <g id="layer6" inkscape:groupmode="layer" inkscape:label="White Background" sodipodi:insensitive="true" style="display:inline">
    <path d="M 38.494806,86.360001 2.1996804,65.405002 l -1.1e-6,-41.91 L 38.494803,2.5400009 74.789928,23.495 l 10e-7,41.91 z" id="path1580" inkscape:flatsided="true" inkscape:randomized="0" inkscape:rounded="0" sodipodi:arg1="1.5707963" sodipodi:arg2="2.0943951" sodipodi:cx="38.494804" sodipodi:cy="44.450001" sodipodi:r1="41.91" sodipodi:r2="36.295124" sodipodi:sides="6" sodipodi:type="star" style="fill:#ffffff;fill-opacity:1;stroke:none;stroke-width:9.19934845;stroke-miterlimit:4;stroke-dasharray:none;stroke-opacity:1"/>
  </g>
  <g id="layer7" inkscape:groupmode="layer" inkscape:label="Image Background" sodipodi:insensitive="true" style="display:inline;opacity:0.5">
    <g clip-path="url(#clipPath939)" id="g6258" style="">
      <image height="62.703854" id="art" preserveAspectRatio="none" sodipodi:absref="D:\Projects\Charters-Board-Game\resource\visual\card\template\../../art/template/template-art.png" style="image-rendering:optimizeSpeed" width="94.055786" x="0.0" xlink:href="D:\Projects\Charters-Board-Game\resource\visual\card\art\template\template-art.png" y="0.0"/>
    </g>
  </g>
  <g id="layer8" inkscape:groupmode="layer" inkscape:label="Info" sodipodi:insensitive="true" style="display:inline">
    <path clip-path="url(#clipPath6226)" d="M 38.494806,86.360001 2.1996804,65.405002 l -1.1e-6,-41.91 L 38.494803,2.5400009 74.789928,23.495 l 10e-7,41.91 z" id="path6173" inkscape:flatsided="true" inkscape:randomized="0" inkscape:rounded="0" sodipodi:arg1="1.5707963" sodipodi:arg2="2.0943951" sodipodi:cx="38.494804" sodipodi:cy="44.450001" sodipodi:r1="41.91" sodipodi:r2="36.295124" sodipodi:sides="6" sodipodi:type="star" style="fill:#ffffff;fill-opacity:1;stroke:none;stroke-width:9.19934845;stroke-miterlimit:4;stroke-dasharray:none;stroke-opacity:1"/>
    <rect clip-path="url(#clipPath914)" height="5.0799999" id="rect854" style="opacity:0.75;fill:url(#linearGradient4668);fill-opacity:1;stroke:none;stroke-width:4.44327974;stroke-miterlimit:4;stroke-dasharray:none;stroke-opacity:1" width="72.593193" x="2.1961906" y="70.485001"/>
    <rect height="8.8899994" id="rect1584" style="opacity:0.75;fill:url(#linearGradient4674);fill-opacity:1;stroke:none;stroke-width:5.87776518;stroke-miterlimit:4;stroke-dasharray:none;stroke-opacity:1" width="72.589706" x="2.1996803" y="56.515003"/>
    <rect clip-path="url(#clipPath828)" height="5.0799999" id="rect1606" style="opacity:0.5;fill:url(#linearGradient4680);fill-opacity:1;stroke:none;stroke-width:4.44317293;stroke-miterlimit:4;stroke-dasharray:none;stroke-opacity:1" width="72.589706" x="2.1996803" y="65.404999"/>
    <rect clip-path="url(#clipPath948)" height="16.844042" id="rect941" style="opacity:0.5;fill:url(#linearGradient4686);fill-opacity:1;stroke:none;stroke-width:6.03947926;stroke-miterlimit:4;stroke-dasharray:none;stroke-opacity:1" width="40.448742" x="17.666658" y="75.565002"/>
    <text id="name" style="font-style:normal;font-variant:normal;font-weight:normal;font-stretch:normal;font-size:7.05555487px;line-height:1.25;font-family:Consolas;-inkscape-font-specification:Consolas;text-align:center;letter-spacing:0px;word-spacing:0px;text-anchor:middle;fill:#000000;fill-opacity:1;stroke:none;stroke-width:0.26458332" x="38.623726" xml:space="preserve" y="63.362957">The Priest of Punishment</text>
    <text id="types" style="font-style:normal;font-variant:normal;font-weight:normal;font-stretch:normal;font-size:4.93888855px;line-height:1.25;font-family:Consolas;-inkscape-font-specification:Consolas;text-align:center;letter-spacing:0px;word-spacing:0px;text-anchor:middle;fill:#000000;fill-opacity:1;stroke:none;stroke-width:0.26458332" x="38.496944" xml:space="preserve" y="69.196602">Citizen Cleric</text>
    <text id="cost" style="font-style:normal;font-variant:normal;font-weight:normal;font-stretch:normal;font-size:4.93888855px;line-height:1.25;font-family:Consolas;-inkscape-font-specification:Consolas;text-align:center;letter-spacing:0px;word-spacing:0px;text-anchor:middle;fill:#000000;fill-opacity:1;stroke:none;stroke-width:0.26458332" x="38.496944" xml:space="preserve" y="74.276604">[Y][Y]</text>
    <text id="hp" style="font-style:normal;font-variant:normal;font-weight:normal;font-stretch:normal;font-size:8.46666622px;line-height:1.25;font-family:Consolas;-inkscape-font-specification:Consolas;text-align:center;letter-spacing:0px;word-spacing:0px;text-anchor:middle;fill:#000000;fill-opacity:1;stroke:none;stroke-width:0.26458332" x="37.783543" xml:space="preserve" y="81.804695">3HP</text>
    <text id="ak" style="font-style:normal;font-variant:normal;font-weight:normal;font-stretch:normal;font-size:7.05555534px;line-height:1.25;font-family:Consolas;-inkscape-font-specification:Consolas;text-align:left;letter-spacing:0px;word-spacing:0px;fill:#000000;fill-opacity:1;stroke:none;stroke-width:0.26458332" x="3.2787793" xml:space="preserve" y="55.255177">1AK</text>
    <text id="ms" style="font-style:normal;font-variant:normal;font-weight:normal;font-stretch:normal;font-size:7.05555534px;line-height:1.25;font-family:Consolas;-inkscape-font-specification:Consolas;text-align:left;letter-spacing:0px;word-spacing:0px;fill:#000000;fill-opacity:1;stroke:none;stroke-width:0.26458332" x="3.3273396" xml:space="preserve" y="49.441547">1MS</text>
    <text id="rg" style="font-style:normal;font-variant:normal;font-weight:normal;font-stretch:normal;font-size:7.05555534px;line-height:1.25;font-family:Consolas;-inkscape-font-specification:Consolas;text-align:left;letter-spacing:0px;word-spacing:0px;fill:#000000;fill-opacity:1;stroke:none;stroke-width:0.26458332" x="3.0282748" xml:space="preserve" y="43.875305">0RG</text>
  </g>
  <g id="layer1" inkscape:groupmode="layer" inkscape:label="Black Frame" sodipodi:insensitive="true" transform="translate(0,-208.1)">
    <path d="M 38.494807,208.1 0,230.325 v 44.45 L 38.494807,297 76.989613,274.775 v -44.45 z m 0,2.5399 36.294939,20.95531 v 41.90958 L 38.494807,294.4601 2.1998656,273.50479 v -41.90958 z" id="path1548" inkscape:connector-curvature="0" style="fill:url(#linearGradient876);fill-opacity:1;stroke:none;stroke-width:9.49088001;stroke-miterlimit:4;stroke-dasharray:none;stroke-opacity:1"/>
  </g>
</svg>

<?xml version="1.0" encoding="UTF-8" standalone="no"?><!-- Created with Inkscape (http://www.inkscape.org/) --><svg xmlns="http://www.w3.org/2000/svg" xmlns:cc="http://creativecommons.org/ns#" xmlns:dc="http://purl.org/dc/elements/1.1/" xmlns:osb="http://www.openswatchbook.org/uri/2009/osb" xmlns:rdf="http://www.w3.org/1999/02/22-rdf-syntax-ns#" xmlns:xlink="http://www.w3.org/1999/xlink" height="3.5in" id="svg109" version="1.1" viewBox="0 0 76.99 88.9" width="3.0311in">
    <title id="title2">Charters Hex</title>
    <defs id="defs56">
        <linearGradient id="charters-violet" osb:paint="solid">
            <stop id="stop4" offset="0" stop-color="#8900c8"/>
        </linearGradient>
        <linearGradient id="charters-green" osb:paint="solid">
            <stop id="stop7" offset="0" stop-color="#00ae06"/>
        </linearGradient>
        <linearGradient id="charters-yellow" osb:paint="solid">
            <stop id="stop10" offset="0" stop-color="#ece700"/>
        </linearGradient>
        <linearGradient id="charters-orange" osb:paint="solid">
            <stop id="stop13" offset="0" stop-color="#fe7900"/>
        </linearGradient>
        <linearGradient id="charters-red" osb:paint="solid">
            <stop id="stop16" offset="0" stop-color="#fc0000"/>
        </linearGradient>
        <linearGradient id="black" osb:paint="solid">
            <stop id="stop19" offset="0"/>
        </linearGradient>
        <linearGradient id="charters-blue" osb:paint="solid">
            <stop id="stop22" offset="0" stop-color="#0019fe"/>
        </linearGradient>
        <clipPath id="clipPath828">
            <path d="m38.495 86.36-36.295-20.955-1.1e-6-41.91 36.295-20.955 36.295 20.955 1e-6 41.91z" fill="#fff" id="path25"/>
        </clipPath>
        <clipPath id="clipPath914">
            <path d="m38.495 86.36-36.295-20.955-1.1e-6-41.91 36.295-20.955 36.295 20.955 1e-6 41.91z" fill="#fff" id="path28"/>
        </clipPath>
        <clipPath id="clipPath948">
            <path d="m38.495 86.36-36.295-20.955-1.1e-6-41.91 36.295-20.955 36.295 20.955 1e-6 41.91z" fill="#fff" id="path31"/>
        </clipPath>
        <linearGradient gradientUnits="userSpaceOnUse" id="linearGradient4668" x1="2.1997" x2="74.789" xlink:href="#charters-blue" y1="73.025" y2="73.025"/>
        <linearGradient gradientUnits="userSpaceOnUse" id="linearGradient4674" x1="2.1997" x2="74.789" xlink:href="#charters-blue" y1="60.96" y2="60.96"/>
        <linearGradient gradientUnits="userSpaceOnUse" id="linearGradient4680" x1="2.1997" x2="74.789" xlink:href="#charters-blue" y1="67.945" y2="67.945"/>
        <linearGradient gradientUnits="userSpaceOnUse" id="linearGradient4686" x1="17.667" x2="58.115" xlink:href="#charters-blue" y1="80.963" y2="80.963"/>
        <clipPath id="clipPath6226">
            <g id="g46">
                <rect clip-path="url(#clipPath914)" fill="url(#linearGradient4668)" height="5.08" id="rect38" opacity=".75" width="72.593" x="2.1962" y="70.485"/>
                <rect fill="url(#linearGradient4674)" height="8.89" id="rect40" opacity=".75" width="72.59" x="2.1997" y="56.515"/>
                <rect clip-path="url(#clipPath828)" fill="url(#linearGradient4680)" height="5.08" id="rect42" opacity=".5" width="72.59" x="2.1997" y="65.405"/>
                <rect clip-path="url(#clipPath948)" fill="url(#linearGradient4686)" height="16.844" id="rect44" opacity=".5" width="40.449" x="17.667" y="75.565"/>
            </g>
        </clipPath>
        <clipPath id="clipPath939">
            <path d="m38.495 2.5399-36.295 20.955v33.02h72.59v-33.02z" fill="#fff" id="path49"/>
        </clipPath>
        <linearGradient gradientUnits="userSpaceOnUse" id="linearGradient4577" x1="33.264" x2="43.648" xlink:href="#black" y1="68.122" y2="68.122"/>
        <linearGradient gradientUnits="userSpaceOnUse" id="linearGradient4583" x1="31.168" x2="45.821" xlink:href="#black" y1="73.025" y2="73.025"/>
        <linearGradient gradientUnits="userSpaceOnUse" id="linearGradient4589" x1="30.863" x2="44.315" xlink:href="#black" y1="79.103" y2="79.103"/>
        <linearGradient gradientUnits="userSpaceOnUse" id="linearGradient4598" x1="2.2" x2="74.789" xlink:href="#charters-blue" y1="73.025" y2="73.025"/>
        <linearGradient gradientUnits="userSpaceOnUse" id="linearGradient887" x2="86.247" y1="230.32" y2="279.24">
            <stop id="stop881" offset="0" stop-color="#000000"/>
            <stop id="stop883" offset="1" stop-color="#000000" stop-opacity="0"/>
        </linearGradient>
    </defs>
    <metadata id="metadata58">
        <rdf:RDF>
            <cc:Work rdf:about="">
                <dc:format>image/svg+xml</dc:format>
                <dc:type rdf:resource="http://purl.org/dc/dcmitype/StillImage"/>
                <dc:title>Charters Hex</dc:title>
                <dc:creator>
                    <cc:Agent>
                        <dc:title>B. Ranson</dc:title>
                    </cc:Agent>
                </dc:creator>
            </cc:Work>
        </rdf:RDF>
    </metadata>
    <g fill="#ffffff" id="g62">
        <path d="m38.495 86.36-36.295-20.955-1.1e-6-41.91 36.295-20.955 36.295 20.955 1e-6 41.91z" fill="#ffffff" id="path60"/>
    </g>
    <g id="g67" opacity=".66">
        <g clip-path="url(#clipPath939)" id="g65" style="">
            <image height="62.704" id="art" image-rendering="optimizeSpeed" preserveAspectRatio="none" width="94.056" xlink:href="D:\Projects\Charters-Board-Game\resource\visual\card\art\character\the-priest-of-punishment.png"/>
        </g>
    </g>
    <g id="g93">
        <path clip-path="url(#clipPath6226)" d="m38.495 86.36-36.295-20.955-1.1e-6-41.91 36.295-20.955 36.295 20.955 1e-6 41.91z" fill="#ffffff" id="path69"/>
        <rect charters-color="0" clip-path="url(#clipPath914)" fill="#ece700" height="5.08" id="rect71" opacity=".75" width="72.593" x="2.1962" y="70.485"/>
        <rect charters-color="0" fill="#ece700" height="8.89" id="rect73" opacity=".75" width="72.59" x="2.1997" y="56.515"/>
        <rect charters-color="0" clip-path="url(#clipPath828)" fill="#ece700" height="5.08" id="rect75" opacity=".5" width="72.59" x="2.1997" y="65.405"/>
        <rect charters-color="0" clip-path="url(#clipPath948)" fill="#ece700" height="16.844" id="rect77" opacity=".5" width="40.449" x="17.667" y="75.565"/>
        <text fill="#000000" font-family="Consolas" font-size="7.0556px" id="name" letter-spacing="0px" stroke-width=".26458" style="line-height:1.25" text-align="center" text-anchor="middle" word-spacing="0px" x="38.623726" xml:space="preserve" y="63.362957">The Priest of Punishment</text>
        <text fill="url(#linearGradient4577)" font-family="Consolas" font-size="4.9389px" id="types" letter-spacing="0px" stroke-width=".26458" style="line-height:1.25" text-align="center" text-anchor="middle" word-spacing="0px" x="38.496944" xml:space="preserve" y="69.196602">Citizen Cleric</text>
        <text fill="url(#linearGradient4583)" font-family="Consolas" font-size="4.9389px" id="cost" letter-spacing="0px" stroke-width=".26458" style="line-height:1.25" text-align="center" text-anchor="middle" word-spacing="0px" x="38.496944" xml:space="preserve" y="74.276604">[Y][Y]</text>
        <text fill="url(#linearGradient4589)" font-family="Consolas" font-size="8.4667px" id="hp" letter-spacing="0px" stroke-width=".26458" style="line-height:1.25" text-align="center" text-anchor="middle" word-spacing="0px" x="37.783543" xml:space="preserve" y="81.804695">3HP</text>
    </g>
    <g fill="url(#linearGradient887)" id="g99" transform="translate(0,-208.1)">
        <path d="m38.495 208.1-38.495 22.225v44.45l38.495 22.225 38.495-22.225v-44.45zm0 2.5399 36.295 20.955v41.91l-36.295 20.955-36.295-20.955v-41.91z" fill="url(#linearGradient887)" id="path95"/>
    </g>
    <path d="m3.332 24.627v30.756h70.324v-30.756z" fill="none" id="abilities-frame" opacity=".405"/>
    <flowRoot fill="#000000" font-family="Consolas" font-size="2.8222px" id="flowRoot107" letter-spacing="0px" stroke-width=".26458" style="line-height:1.25" text-align="center" text-anchor="middle" word-spacing="0px" xml:space="preserve"><flowRegion id="flowRegion104"><use height="100%" id="use102" width="100%" xlink:href="#abilities-frame"/></flowRegion><flowPara font-family="Consolas" font-weight="bold" id="ability-0" text-align="start" text-anchor="start">Mark of the Gods: [Y]=&gt;Equip [Y/Light] to a character within {0}.</flowPara><flowPara font-family="Consolas" font-weight="bold" id="flowPara922" text-align="start" text-anchor="start"/><flowPara font-family="Consolas" font-weight="bold" id="ability-1" text-align="start" text-anchor="start">Pariah/Messiah: Enemy characters equipped with [Y/Light] have -1AK and -2 max HP; allied characters equipped with [Y/Light] have &lt;+1&gt; on attacks and +2HP</flowPara><flowPara font-family="Consolas" font-weight="bold" id="flowPara924" text-align="start" text-anchor="start"/><flowPara font-family="Consolas" font-weight="bold" id="ability-2" text-align="start" text-anchor="start"/></flowRoot>
</svg>
